X: 17926
T: House On The Hill, The
R: reel
M: 4/4
K: Amajor
AB|cE~E2 c2cB|Acec BcAB|cE~E2 c2c2B|Acec B2 AB|
cE~E2 c2cB|Acec BcAB|cE~E2 c2c2B|Acec B2||
AG|FD (3DDD DFAF|EGBG ABAG|FD (3DDD DFAF|EGBG A2AG|
F2EF DFAF|EGBG ABAG|FD (3DDD DFAF|EGBG A2||
cd|ec (3ccc ecac|d~B3 Bcdf|ec (3ccc ecac|dBGB A2cd|
e2ef ec (3ccc|dB (3BBB Bcdf|ec (3ccc ecac|dBGB A2||

